packages/Snapp/src/SweepIcon/index.svg

<?xml version="1.0" encoding="UTF-8"?>
<svg width="24px" height="24px" viewBox="0 0 24 24" version="1.1" xmlns="http://www.w3.org/2000/svg" xmlns:xlink="http://www.w3.org/1999/xlink">
    <title>Icons/24/Sweep</title>
    <g id="Icons/24/Sweep" stroke="none" stroke-width="1" fill="none" fill-rule="evenodd">
        <path d="M21,13 C21.5128358,13 21.9355072,13.3860402 21.9932723,13.8833789 L22,14 L22,19 C22,19.5522847 21.5522847,20 21,20 C20.4871642,20 20.0644928,19.6139598 20.0067277,19.1166211 L20,19 L20,16.7889992 L17.8928906,18.6723932 C15.8643409,20.602205 12.9472436,21.4045064 10.1600873,20.804873 C7.36449346,20.2034243 5.08050522,18.2731705 4.11643474,15.6826907 C3.92380441,15.1650886 4.18724614,14.5893314 4.7048483,14.396701 C5.22245047,14.2040707 5.79820766,14.4675124 5.99083799,14.9851146 C6.71366473,16.9273669 8.44430736,18.3899749 10.5807455,18.8496117 C12.6362514,19.2918366 14.7814868,18.7438053 16.3377687,17.3841039 L16.5373662,17.2021632 L19.001,14.9999992 L16,15 C15.4871642,15 15.0644928,14.6139598 15.0067277,14.1166211 L15,14 C15,13.4871642 15.3860402,13.0644928 15.8833789,13.0067277 L16,13 L21,13 Z M13.8399127,3.19512701 C16.6355065,3.79657568 18.9194948,5.7268295 19.8835653,8.31730927 C20.0761956,8.83491144 19.8127539,9.41066863 19.2951517,9.60329896 C18.7775495,9.79592929 18.2017923,9.53248756 18.009162,9.0148854 C17.2863353,7.07263314 15.5556926,5.61002512 13.4192545,5.15038831 C11.3637486,4.70816338 9.2185132,5.25619468 7.66223133,6.61589605 L7.46263383,6.79783677 L4.997,8.99999917 L8,9 C8.51283584,9 8.93550716,9.38604019 8.99327227,9.88337887 L9,10 C9,10.5128358 8.61395981,10.9355072 8.11662113,10.9932723 L8,11 L3,11 C2.48716416,11 2.06449284,10.6139598 2.00672773,10.1166211 L2,10 L2,5 C2,4.44771525 2.44771525,4 3,4 C3.51283584,4 3.93550716,4.38604019 3.99327227,4.88337887 L4,5 L4,7.20899917 L6.10710941,5.32760678 C8.13565907,3.39779496 11.0527564,2.59549363 13.8399127,3.19512701 Z" id="Combined-Shape" fill="#404040"></path>
    </g>
</svg>

<svg viewBox="0 0 24 24" xmlns="http://www.w3.org/2000/svg" fill="currentColor" focusable="false">
  <path d="M21 13a1 1 0 01.993.883L22 14v5a1 1 0 01-1.993.117L20 19v-2.211l-2.107 1.883c-2.029 1.93-4.946 2.733-7.733 2.133-2.796-.602-5.08-2.532-6.044-5.122a1 1 0 011.875-.698c.723 1.942 2.453 3.405 4.59 3.865 2.055.442 4.2-.106 5.757-1.466l.2-.182L19 15h-3a1 1 0 01-.993-.883L15 14a1 1 0 01.883-.993L16 13h5zm-7.16-9.805c2.796.602 5.08 2.532 6.044 5.122a1 1 0 01-1.875.698c-.723-1.942-2.453-3.405-4.59-3.865-2.055-.442-4.2.106-5.757 1.466l-.2.182L4.998 9H8a1 1 0 01.993.883L9 10a1 1 0 01-.883.993L8 11H3a1 1 0 01-.993-.883L2 10V5a1 1 0 011.993-.117L4 5v2.209l2.107-1.881c2.029-1.93 4.946-2.733 7.733-2.133z" fill="none"/>
</svg>
